X:1
T:Pièce en forme de habanera
T:Pièce en forme de habanera 
T:Maurice Ravel
C:Maurice Ravel
%%score 1 2 { ( 3 6 ) | ( 4 5 ) }
L:1/8
Q:1/8=100
M:2/4
K:Bb
V:1 treble nm="instrument" snm="inst"
V:2 treble transpose=-2 nm="Clarinette en Si♭" snm="Clar. Si♭"
V:3 treble nm="Piano" snm="Pia."
V:6 treble 
V:4 treble 
V:5 treble 
V:1
"^Presque lent avec indolence" z4 | z4 | z4 | z4 | z4 | z4 |!mf! f/4g/4f3/2- f/!p!f/4g/4f- | %7
 f2- f/4=e/4d/4c/4B/4c/4d/4e/4 | f/4g/4f3/2- f(3(=e/f/e/ | (3d/=e/d/(3c/d/c/ (3B/c/B/(3_A/B/A/) | %10
!<(! (3(FG_A!<)!!>(! cB)!>)! |!<(! (3(FG_A!<)!!>(! cB)!>)! |{/cB} D4- | D4 | z4 | z4 | z4 | %17
!f! (3(ggg gf | a<g- g2- | g)(f/4g/4a/4g/4 fe) | (f/4e/4d3/2-) d2 |!>(! (3(cde gf) | (3(Bcd fe) | %23
 (3(GAB dc)!>)! |!mf!{/Ac} d4- | d z z2 | z4 | z!p!!<(! Td- d2- | d3!<)!!mf! c/4d/4e/4f/4 | %29
[Q:1/8=80]!f!!>(! (17:2:17g119/60 f119/60 e119/60 d119/60 c119/60 B119/60 _A119/60 G119/60 F119/60[Q:1/8=60] E119/60 D119/60 E119/60 F119/60 G119/60 A119/60[Q:1/8=40] B119/60 c119/60!>)! | %30
[Q:1/8=100]!mf! d2 z2 |[K:F] z!p!!<(! Td- d2- | d3!<)!!mf! c/4d/4e/4f/4 |[K:Bb] g4- | %34
"^rubato"[Q:1/8=150] (3g.a.^f .g.e |[Q:1/8=120] (3.=f.d.e .c.d |[Q:1/8=100] (3.B.c.A (3.B.G.A | %37
[Q:1/8=100] ^F4 | z"^Rall"[Q:1/8=80] (^F GA/4G/4F/4G/4 | c3 B) || %40
[K:G][Q:1/8=100] (3(_B/4c/4B/4G3/2- G2) | z4 | (3(GGG{/GA} G=F) | (3:2:2(A G2- G2) | %44
 z!mf!!>(! (=F/4G/4A/4G/4 F^D | =F/4^D/4=D3/2-!p! D2)!>)! | (3CD^D GF | (3CD^D GF | %48
 (3z/!<(! _E/_G/(3_A/G/A/ (3c/A/c/(3_e/c/e/ | _g2-!<)!!mf! g!>(!(3=f/g/f/!>)! | %50
[Q:1/8=50]!pp! (27:2:27e81/40 =f81/40 e81/40 ^d81/40 e81/40 d81/40 =d81/40[Q:1/8=65] ^d81/40 =d81/40 ^c81/40 d81/40 c81/40 =c81/40 ^c81/40 =c81/40 B81/40[Q:1/8=80] c81/40 B81/40 _B81/40 =B81/40 _B81/40 A81/40[Q:1/8=70] B81/40 A81/40 ^G81/40[Q:1/8=60] A81/40 G81/40 | %51
[Q:1/8=100] =G4 | z4 | z2!p! TG2-{_A} | G2 (3GF!~(!G | %55
 !~)!g2 (5:4:5z/!mf! !tenuto!g/!tenuto!g/!tenuto!g/!tenuto!g/ |{=a} Tg4- | g2 (3gf!~(!g | !~)!G4 | %59
 z4 | z4 |] %61
V:2
[K:C]"^Presque lent avec indolence" z4 | z4 | z4 | z4 | z4 | z4 | %6
!mf! g/4 a/4 g3/2- g/!p! g/4 a/4 g- | g2- g/4 ^f/4 e/4 d/4 c/4 d/4 e/4 f/4 | %8
 g/4 a/4 g3/2- g (3(^f/ g/ f/ | (3e/ ^f/ e/ (3d/ e/ d/ (3c/ d/ c/ (3_B/ c/ B/) | %10
!<(! (3(G A _B!<)!!>(! d c)!>)! |!<(! (3(G A _B!<)!!>(! d c)!>)! |{/dc} E4- | E4 | z4 | z4 | z4 | %17
!f! (3(a a a a g | b/ a3/2- a2- | a) (g/4 a/4 b/4 a/4 g f) | (g/4 f/4 e3/2-) e2 | %21
!>(! (3(d e f a g) | (3(c d e g f) | (3(A B c e d)!>)! |!mf!{/Bd} e4- | e z z2 | z4 | %27
 z!p!!<(! Te- e2- | e3!<)!!mf! d/4 e/4 f/4 g/4 | %29
!f!!>(! (17:2:17a119/60 g119/60 f119/60 e119/60 d119/60 c119/60 _B119/60 A119/60 G119/60 F119/60 E119/60 F119/60 G119/60 A119/60 B119/60 c119/60 d119/60!>)! | %30
!mf! e2 z2 |[K:G] z!p!!<(! Te- e2- | e3!<)!!mf! d/4 e/4 f/4 g/4 |[K:C] a4- | %34
"^rubato" (3a .b .^g .a .f | (3.=g .e .f .d .e | (3.c .d .B (3.c .A .B | ^G4 | %38
 z"^Rall" (^G A B/4 A/4 G/4 A/4 | d3 c) ||[K:A] (3(=c/4 d/4 c/4 A3/2- A2) | z4 | %42
 (3(A A A{/AB} A =G) | (3:2:2(B A2- A2) | z!mf!!>(! (=G/4 A/4 B/4 A/4 G ^E | %45
 =G/4 ^E/4 =E3/2-!p! E2)!>)! | (3D E ^E A G | (3D E ^E A G | %48
 (3z/!<(! =F/ _A/ (3_B/ A/ B/ (3d/ B/ d/ (3=f/ d/ f/ | _a2-!<)!!mf! a!>(! (3=g/ a/ g/!>)! | %50
!pp! (27:2:27f81/40 =g81/40 f81/40 ^e81/40 f81/40 e81/40 =e81/40 ^e81/40 =e81/40 ^d81/40 e81/40 d81/40 =d81/40 ^d81/40 =d81/40 c81/40 d81/40 c81/40 =c81/40 ^c81/40 =c81/40 B81/40 c81/40 B81/40 ^A81/40 B81/40 A81/40 | %51
 =A4 | z4 | z2!p! TA2-{_B} | A2 (3A G !~(!A | %55
 !~)!a2 (5:4:5z/!mf! !tenuto!a/ !tenuto!a/ !tenuto!a/ !tenuto!a/ |{=b} Ta4- | a2 (3a g !~(!a | %58
 !~)!A4 | z4 | z4 |] %61
V:3
!p! z4 | z4 | (3([c=ea][d^fb][cea] [Bdg][_Ac=f]) | (3([c=ea][d^fb][cea] [Bdg][_Ac=f]) | %4
 (3([c=ea][^FAd]) z z2 | z4 | !>![_ABd]4 | z4 | z2 !arpeggio![d_abd']2 | z4 | %10
 z2!>(! [_Ac][FB]!>)! | z2!>(! [_Ac][FB]!>)! |!pp! (3([a=e'a'][b^f'b'][ae'a'] [gd'g'][fc'=f']) | %13
 (3([a=e'a'][b^f'b'][ae'a'] [gd'g'][fc'=f']) | (3([a=e'a'][ad']) z z2 | %15
!8va(! [d'd'']2!8va)!!<(! z2!<)! |!p! z4 |!f! ([Bd]3 [Ac] | [Bd]4) | ([Bd]2 [Ac][GB] | [^FA]2) z2 | %21
 ([EGBc]3 [FAcd]) | ([GBde]3 [Acef]) | [Bdfg]3 [cega] | (3[a=e'a'][b^f'b'][ae'a'] [gd'g'][fc'=f'] | %25
 (3[a=e'a'][ad'] z z2 |[K:bass] D,4 |[K:treble] !arpeggio![dad']2 z2 | [dgd']2 z2 | %29
!f!!>(! (3([bd'g'][_ac'f'][bd'g'] [fbd'][dac'])!>)! |!mf! [DAd]2 z2 |[K:F] !arpeggio![dad']2 z2 | %32
 !arpeggio![dgd']2 z2 |[K:Bb] !arpeggio![gc'_e'g']2 z2 | z4 | z4 | z4 |[K:bass] z2 ([=A,E_G]2 | %38
!>(! [G,_D_F]4-) | [G,D]4!>)! ||[K:G]!>(! ([^A,^C_E]<[B,D]- [B,D]2)!>)! | z4 | ([B,D]3 [_A,C] | %43
 [G,B,]4) | z2 ([_B,D][_A,C] | [G,B,]4) | ([_A,C_E]3 [_B,_D^F]) | ([_A,C_E]3 [_B,_D^F]) | %48
 [^F,_A,C_E]4 |[K:treble] z2 !arpeggio![fg_ac'_e'f']2 |[K:bass] !fermata!z4 | z4 | z4 | %53
 z [G,C_EG]3 | z4 | z [DGd]3 | z2 z [_Bg] | z4 |{/a'd'g} (3(d'/(g/d/-[dgd']-)) [dgd']2 | %59
[K:bass] [G,,D,]4 |[K:treble]!8va(! [b'd'']2 z2!8va)! |] %61
V:4
 D>d d'd | D>d d'd |"^expressif" D>d d'd | D>d d'd | D>d d'd | D>d d'd | D>d d'd | D>d d'd | %8
 D>[_AB] z d | D>d d'd | D>d- dd | D>d- dd | (3[Ac=e][Bd^f][Ace] [GBd][DF_Ac] | %13
 (3[Ac=e][Bd^f][Ace] [GBd][DF_Ac] | (3[Ac=e][^Fd] z z z | z3/2 D/ dD |"^MD" d>D dD | z3/2 D/ dD | %18
 z3/2 D/ dD | z3/2 D/ dD | z3/2 D/ dD | z3/2 D/ dD | z3/2 D/ dD | z3/2 D/ dD | %24
!pp! (3[Ac=e][Bd^f][Ace] [GBd][DF_Ac] | (3[Ac=e][^Fd] z dD | z3/2 D/ dD | !arpeggio![D^Fce]2 z2 | %28
 [CGBe]2 z2 | !arpeggio![B,F_Ad]2 z2 | [D,,A,,]3/2[K:treble] D/ dD |[K:F] !arpeggio![D^Fc=e]2 z2 | %32
 !arpeggio![CGB=e]2 z2 |[K:Bb][K:bass]!ff! !arpeggio![F,C_EA]2 z2 | z4 | z4 | z4 | %37
 z2!p! ([F,,C,]2 | [E,,B,,]4-) | [E,,B,,]4 ||[K:G] G,,>D, DD, | G,,>D, DD, | G,,>D, DD, | %43
 G,,>D, DD, | G,,>D, DD, | G,,>D, DD, | G,,>D, DD, | G,,>D, DD, | G,,4 | %49
[K:treble] z2 !arpeggio![FG_Ac_e]2 |[K:bass] !fermata!z4 | G,,>D, B,D, | G,,>D, B,D, | z [C,_A,]3 | %54
 z4 | z [G,A,_E]3 |[K:treble] z2 z [Gde] | z4 |[K:bass]!p!{/G,,D,_A,} [B,D]>[K:treble]D [Bd]D | %59
 z z/ D/ [Bd]D |!pp! [bd']2 z2 |] %61
V:5
 x4 | x4 | x4 | x4 | x4 | x4 | x4 | x4 | x4 | x4 | x4 | x4 | x3/2 D/ x z | x3/2 D/ x z | %14
 x3/2 D/ dD | x4 | x4 | x4 | x4 | x4 | x4 | x4 | x4 | x4 | x3/2 D/ x z | x3/2 D/ x2 | x4 | x4 | %28
 x4 | x4 | x3/2[K:treble] x5/2 |[K:F] x4 | x4 |[K:Bb][K:bass] x4 | x4 | x4 | x4 | x4 | x4 | x4 || %40
[K:G] x4 | x4 | x4 | x4 | x4 | x4 | x4 | x4 | x4 |[K:treble] x4 |[K:bass] x4 | x4 | x4 | C,,4 | %54
 x4 | C,4 |[K:treble] x2 C2 | x4 |[K:bass] x3/2[K:treble] x5/2 | x4 | x4 |] %61
V:6
 x4 | x4 | x4 | x4 | x4 | x4 | x4 | x4 | x4 | x4 | x4 | x4 | x4 | x4 | x4 |!8va(! x2!8va)! x2 | %16
 x4 | x4 | x4 | x4 | x4 | x4 | x4 | x4 | x4 | x4 |[K:bass] x4 |[K:treble] x4 | x4 | x4 | x4 | %31
[K:F] x4 | x4 |[K:Bb] x4 | x4 | x4 | x4 |[K:bass] x4 | x4 | F2 E2 ||[K:G] x4 | x4 | x4 | x4 | x4 | %45
 x4 | x4 | x4 | x4 |[K:treble] x4 |[K:bass] x4 | x4 | x4 | x4 | x4 | x4 | x4 | x4 | x4 | %59
[K:bass] x4 |[K:treble]!8va(! x4!8va)! |] %61

